application/web/upload/images/arrow-left-black.svg

<svg width="7" height="12" viewBox="0 0 7 12" fill="none" xmlns="http://www.w3.org/2000/svg">
<path id="Combined Shape Copy" fill-rule="evenodd" clip-rule="evenodd" d="M6.29825 0.0881068C6.46723 -0.0377607 6.71649 -0.0287694 6.87399 0.11508C7.042 0.26852 7.042 0.517294 6.87399 0.670732L1.03863 5.99998L6.87399 11.3293L6.90353 11.3591C7.04135 11.5134 7.0315 11.7411 6.87399 11.8849C6.70598 12.0384 6.43359 12.0384 6.26558 11.8849L0.126006 6.27781C0.115506 6.26822 0.105662 6.25825 0.0964742 6.24797C0.0872855 6.23768 0.0787539 6.22706 0.070878 6.21617C-0.0393777 6.06366 -0.0210009 5.85641 0.126008 5.72215L6.26558 0.115078L6.29825 0.0881068Z" fill="black"/>
</svg>

<svg width="7" height="12" fill="none" xmlns="http://www.w3.org/2000/svg"><path id="Combined Shape Copy" fill-rule="evenodd" clip-rule="evenodd" d="M6.298.088a.46.46 0 01.576.027.37.37 0 010 .556L1.039 6l5.835 5.33.03.03a.368.368 0 01-.03.525.46.46 0 01-.608 0L.126 6.278a.415.415 0 01-.055-.062.368.368 0 01.055-.494L6.266.115l.032-.027z" fill="#000"/></svg>
